X: 20448
T: John Joe Harnett's
R: slide
M: 12/8
K: Adorian
|:^G|ABA e2 d d2 B G2 ^G|ABA e2 A def g3|
ABA e2 d d2 B G3|efg e2 d B2 A A2:|
|:g|e2 d e2 f g2 f e2 d|Bcd e2 f g3- g2 a|
[1 bag a2 f gfe fed|e2 g fed e3- e2:|
[2 b2 g agf g2 e fed|efg e2 d B2 A- A2||

